X: 1
T:March  " "
M:C|
L:1/8
Q:80
C:P/M D. MaClean
S:MAJOR MANSON'S FAREWELL TO CLACHANTRUSHAL
K:HP
|: {g}A3/4B/4|
{GdG}c2{gBd}B{e}A3/4{d}c/4|
{gef}e{g}A3/4B/4{gcd}ca3/4f/4|  !
{gef}e{g}A3/4{d}c/4{g}f3/4e/4{g}c/4{d}A3/4|
{g}c/4e3/4a3/4c/4{gBG}B{g}A3/4B/4| |
{GdG}c2{gBd}B{e}A3/4{d}c/4|  !
{gef}e{g}A3/4B/4{gcd}c{g}B/4{d}A3/4|
{g}c/4e3/4a3/4f/4{gef}e3/4c/4{g}B/4{d}c3/4|
{g}c/2{G}A3/2{GAG}A:| |:  !
{g}c/4e3/4|
{g}f2{gfg}f3/4e/4{g}f3/4g/4|
{a}f3/4a/4{g}a3/4f/4{gef}e{g}A3/4{d}c/4|  !
{g}f3/4e/4{g}c/4{d}A3/4{g}c/4e3/4{g}A3/4f/4|
{g}e3/4f/4a3/4c/4{gBG}B|1 {g}c/4e3/4| |
|1 {g}f2{gfg}f3/4e/4{g}f3/4g/4|  !
{a}f3/4a/4{g}a3/4f/4{gef}e{AGAG}A|
{g}c/4e3/4a3/4f/4{gef}e3/4c/4{g}B/4{d}c3/4|
{g}c/2{G}A3/2{GAG}A:| |:  !
{g}A3/4B/4|
{GdG}c2{g}c{GdGe}A3/4{d}c/4|
{g}A3/4{d}c/4{g}c3/4B/4{g}B{GdGe}A3/4{d}c/4|  !
{gef}e{g}A3/4{d}c/4{g}f3/4e/4{g}c/4{d}A3/4|
{g}c/4e3/4a3/4c/4{gBG}B{g}A3/4B/4| |
{GdG}c2{g}c{GdGe}A3/4{d}c/4|  !
{g}A3/4{d}c/4{g}c3/4B/4{g}B{GdGe}A3/4G/4|
{d}c/4e3/4a3/4f/4{gef}e3/4c/4{g}B/4{d}c3/4|
{g}c/2{G}A3/2{GAG}A:| |:  !
{g}c/4e3/4|
{g}f3/4a/4{g}a3/4f/4{gef}e{g}A3/4{d}c/4|
{g}f3/4e/4{A}e3/4f/4{gcd}c{g}B/4{d}A3/4|  !
{g}f3/4a/4{g}a3/4f/4{gef}e{g}A3/4{d}c/4|
{g}f3/4e/4{A}e3/4c/4{gBG}B|1 {g}c/4e3/4| |
|1 {g}f3/4a/4{g}a3/4f/4{gef}e{g}A3/4{d}c/4|  !
{g}f3/4e/4{A}e3/4f/4{gcd}c{g}B/4{d}A3/4|
{g}c/4e3/4a3/4f/4{gef}e3/4c/4{g}B/4{d}c3/4|
{g}c/2{G}A3/2{GAG}A:| |  !
{g}A3/4B/4|
{GdG}c2{g}c{GdGe}A3/4{d}c/4|
{g}A3/4f/4{g}e3/4f/4{g}c{GdGe}A3/4d/4|  !
{g}c/4e3/4a3/4f/4{gef}e3/4c/4{g}B/4{d}c3/4|
{g}c/2{G}A3/2{GAG}A|]
